icon/pk/skiing-nordic.svg

<svg viewBox="0 0 48 48" fill="none" xmlns="http://www.w3.org/2000/svg" height="1em" width="1em">
  <path d="M24 14C26.7614 14 29 11.7614 29 9C29 6.23858 26.7614 4 24 4C21.2386 4 19 6.23858 19 9C19 11.7614 21.2386 14 24 14Z" fill="#2F88FF" stroke="black" stroke-width="4" stroke-miterlimit="2"/>
  <path d="M34 24H28L22 19L19 29L25 35L27 44" stroke="black" stroke-width="4" stroke-miterlimit="2" stroke-linecap="round" stroke-linejoin="round"/>
  <path d="M17 34L15 39L9 44" stroke="black" stroke-width="4" stroke-miterlimit="2" stroke-linecap="round" stroke-linejoin="round"/>
  <path d="M5 44H39L44 37" stroke="black" stroke-width="4" stroke-miterlimit="2" stroke-linecap="round" stroke-linejoin="round"/>
  <path d="M34 24V44" stroke="black" stroke-width="4" stroke-miterlimit="2" stroke-linecap="round" stroke-linejoin="round"/>
</svg>

<svg width="48" height="48" fill="none" xmlns="http://www.w3.org/2000/svg"><path d="M24 14a5 5 0 1 0 0-10 5 5 0 0 0 0 10Z" fill="#2F88FF" stroke="#000" stroke-width="4" stroke-miterlimit="2"/><path d="M34 24h-6l-6-5-3 10 6 6 2 9M17 34l-2 5-6 5" stroke="#000" stroke-width="4" stroke-miterlimit="2" stroke-linecap="round" stroke-linejoin="round"/><path d="M5 44h34l5-7M34 24v20" stroke="#000" stroke-width="4" stroke-miterlimit="2" stroke-linecap="round" stroke-linejoin="round"/></svg>
